X:205
T: Krambambuli (3-47), S. 124f
N: K1180
O: Luxemburg
S: KINTZELE, Guillaume: An der Ucht, Bd. 3 Luxemburg 1928]
N: in der Quelle mit einer 2. Stimme versehen
R: Scherz-, Trinklied]
M: 4/4
L: 1/16
K: C
G4 | c4B2A2G6G2 | A4B4c2G2G2
G2 | A2G2E2C2G4G4 | E8z4
G4 | c4B2A2G6G2 | A4B4c2G2G2
G2 | A2G2E2C2G4G4 | E8z4
G4 | E3GG2G2A3GG2G2 | E3GG2G2A3GG2
G2 | c4d4e3cc2c2 | d4B4c4
G4 | E3GG2G2A3GG2G2 | E3GG2G2A3GG2
G2 | c4d4e3cc2c2 | d4B4c4

@@@ Tune index: 8259
